img/techno-grey.svg

<svg width="115" height="115" viewBox="0 0 115 115" fill="none" xmlns="http://www.w3.org/2000/svg">
<path d="M0.17575 57.2067C-2.21515 32.4047 19.9473 0.14175 56.9412 0.00044448C88.4637 -0.123905 114.187 25.8594 114.181 57.3141C114.181 88.8366 88.4806 114.198 56.8394 114.402C22.4229 114.622 -2.02862 84.2244 0.17575 57.2067Z" fill="#707070"/>
<path d="M102.583 57.1843C102.64 82.6815 82.3311 103.154 56.9412 103.193C31.5005 103.233 11.0225 82.8285 10.9886 57.416C10.9547 31.9301 31.2631 11.5029 56.6926 11.4464C82.1672 11.3899 102.527 31.6814 102.583 57.1843Z" fill="#DADADA"/>
<path d="M29.9233 51.5034C34.3208 29.9006 60.745 23.587 73.4569 35.7394C57.3763 52.1252 47.3492 59.004 31.4551 52.5434C30.7599 52.47 30.2399 52.1308 29.9233 51.5034Z" fill="#707070"/>
<path d="M29.9234 51.5037C30.4321 51.8485 31.3817 51.9332 31.4552 52.5437C32.3482 59.8351 30.6865 61.0842 30.1382 65.3403L30.2456 65.216C28.0243 65.1086 25.7068 65.3743 23.6099 64.809C19.7268 63.769 13.7297 62.7121 13.5828 59.2246C13.3906 54.8441 18.7489 51.6789 22.3268 48.8189C25.1303 46.5749 27.1708 51.0402 29.9291 51.5037H29.9234Z" fill="#707070"/>
<path d="M61.4461 54.3469C54.7143 60.2987 47.7225 65.9792 41.3468 72.2927C36.6159 76.9784 34.3606 74.8758 32.2749 70.207C31.5458 68.5735 30.9184 66.8835 30.2514 65.2218L30.144 65.3461C42.4716 67.0813 51.7638 61.22 60.2309 53.3125C60.8526 53.4029 61.2596 53.7477 61.4461 54.3469Z" fill="#707070"/>
<path d="M61.4459 54.3469C61.039 54.0022 60.632 53.6574 60.2307 53.3126C64.0855 49.8986 67.9121 46.4508 71.8008 43.082C77.6453 38.012 77.8487 38.0742 81.664 45.0603C82.3027 46.2247 83.0431 47.3325 83.7553 48.4517C83.7666 48.4347 83.874 48.3103 83.8797 48.299C76.3396 50.0399 68.2795 49.9043 61.4516 54.3469H61.4459Z" fill="#707070"/>
<path d="M83.6763 62.5765C79.1997 84.1623 52.7529 90.3742 40.0806 78.1766C56.2234 61.853 66.273 55.0138 82.1445 61.5308C82.8397 61.6099 83.3597 61.9434 83.6763 62.5765Z" fill="#707070"/>
<path d="M83.6762 62.5764C83.1675 62.226 82.218 62.1412 82.1445 61.5308C81.2797 54.2394 82.9471 52.9902 83.5123 48.7397L83.4049 48.8641C85.6263 48.9828 87.9437 48.7228 90.0407 49.2937C93.9181 50.3506 99.9095 51.4302 100.051 54.9176C100.226 59.2981 94.8564 62.4408 91.2672 65.2951C88.4524 67.5334 86.4289 63.0569 83.6762 62.5821V62.5764Z" fill="#707070"/>
<path d="M25.362 33.3773L24.3559 34.8808L28.7024 37.7917L27.9507 38.9165L23.6041 36.0056L22.598 37.5035L21.6824 36.8874L24.4463 32.7612L25.362 33.3773Z" fill="#707070"/>
<path d="M32.6591 32.9983L30.1608 35.7962L25.4355 31.5796L27.8321 28.8892L28.6573 29.624L27.1595 31.3083L28.273 32.3031L29.6691 30.7431L30.4886 31.4779L29.0925 33.0379L30.2343 34.061L31.8339 32.2692L32.6591 33.004V32.9983Z" fill="#707070"/>
<path d="M37.1524 29.1547L35.9202 30.1834L33.6989 29.296C33.6198 29.2621 33.4954 29.183 33.3372 29.0586L33.3259 29.0699C33.3711 29.1604 33.4276 29.3017 33.4841 29.4882L33.9476 31.8226L32.7098 32.8569L32.2406 29.1208L28.7871 27.883L30.0476 26.8317L32.0145 27.7134C32.1728 27.7869 32.3367 27.8773 32.5006 27.9904L32.5119 27.9791C32.4441 27.8095 32.3819 27.6286 32.3254 27.4251L31.8958 25.2829L33.0545 24.3164L33.5972 27.9564L37.1524 29.1491V29.1547Z" fill="#707070"/>
<path d="M42.279 26.1874L41.109 26.86L39.809 24.5935L37.4633 25.9331L38.7633 28.1996L37.5933 28.8722L34.4507 23.3726L35.6207 22.7L36.8924 24.9157L39.2325 23.5761L37.9607 21.3547L39.1307 20.6821L42.2734 26.1818L42.279 26.1874Z" fill="#707070"/>
<path d="M42.0248 22.8921C41.7027 21.9539 41.7196 21.0947 42.0701 20.3204C42.4205 19.546 43.0422 19.0034 43.9409 18.6982C44.8001 18.4043 45.5857 18.4551 46.3036 18.8508C47.0214 19.2408 47.5301 19.8851 47.8353 20.7838C48.1519 21.7165 48.1406 22.5699 47.7958 23.333C47.451 24.1017 46.8405 24.633 45.9588 24.9326C45.0997 25.2265 44.3027 25.1813 43.5792 24.7969C42.8557 24.4126 42.3357 23.7795 42.0361 22.8921H42.0248ZM43.3418 22.3665C43.5396 22.9486 43.8449 23.3782 44.2518 23.6552C44.6588 23.9321 45.1053 23.983 45.5971 23.8191C46.1001 23.6495 46.4279 23.3387 46.5862 22.8865C46.7445 22.4343 46.7218 21.9143 46.5184 21.3152C46.3036 20.6934 46.004 20.2412 45.6084 19.9699C45.2127 19.6986 44.7718 19.6477 44.2801 19.8173C43.777 19.9869 43.4492 20.3091 43.2853 20.7782C43.1214 21.2473 43.144 21.7786 43.3475 22.3665H43.3418Z" fill="#707070"/>
<path d="M51.6561 21.4L49.2765 21.8353L49.1069 20.9196L51.4865 20.4844L51.6561 21.4Z" fill="#707070"/>
<path d="M58.5236 22.9035L57.1728 22.9543L56.9862 17.8108L54.2901 17.9069L54.4766 23.0504L53.1257 23.1013L52.8997 16.7708L58.2975 16.5786L58.5236 22.9091V22.9035Z" fill="#707070"/>
<path d="M59.801 19.8628C59.9536 18.8793 60.3606 18.1276 61.0276 17.6019C61.6945 17.0762 62.4971 16.8841 63.4411 17.0254C64.3341 17.161 65.0124 17.5736 65.4646 18.2519C65.9167 18.9302 66.075 19.7384 65.928 20.6711C65.7754 21.6489 65.3741 22.395 64.7128 22.915C64.0515 23.435 63.2602 23.6272 62.3445 23.4859C61.4458 23.3502 60.7619 22.9433 60.2928 22.265C59.8236 21.5867 59.6597 20.7898 59.801 19.8628ZM61.2141 20.0041C61.118 20.6145 61.1915 21.1346 61.4232 21.5641C61.6549 21.9937 62.028 22.2537 62.5424 22.3272C63.0624 22.4063 63.4976 22.282 63.848 21.9598C64.1985 21.6319 64.4189 21.1572 64.515 20.5354C64.6167 19.8854 64.5545 19.3484 64.3285 18.9245C64.1024 18.5006 63.735 18.2519 63.2206 18.1728C62.695 18.0936 62.2541 18.2236 61.898 18.5628C61.5363 18.9019 61.3102 19.3824 61.2141 19.9985V20.0041Z" fill="#707070"/>
<path d="M71.0037 25.7863L69.7319 25.3398L71.4615 20.4337L70.218 19.9928C69.1215 22.1067 68.3415 23.3898 67.8836 23.8476C67.4201 24.3055 66.8945 24.4298 66.301 24.2207C66.0466 24.1302 65.8262 24.0059 65.634 23.8533L65.9958 22.8302C66.1371 22.9489 66.2671 23.028 66.3858 23.0676C66.4706 23.0959 66.5667 23.1015 66.6571 23.0789C66.7532 23.0563 66.8719 22.9772 67.0075 22.8472C67.1488 22.7172 67.3636 22.4289 67.6575 21.9767C67.9514 21.5246 68.2623 20.9819 68.6015 20.3489L69.5567 18.5571L73.1063 19.8119L70.998 25.7863H71.0037Z" fill="#707070"/>
<path d="M76.9614 29.1098L75.8593 28.4654L77.6793 25.3567C77.8658 25.0345 78.0523 24.7519 78.2275 24.5089L78.2049 24.4919C78.1201 24.5541 77.9449 24.6502 77.6849 24.7858L73.2988 26.9676L72.1118 26.2724L75.311 20.8066L76.4132 21.451L74.5875 24.5654C74.3671 24.9441 74.2088 25.1871 74.1127 25.3002H74.124L78.9001 22.9036L80.1663 23.6441L76.9671 29.1098H76.9614Z" fill="#707070"/>
<path d="M82.2178 33.6883L84.8291 30.8678C85.0721 30.6078 85.383 30.2913 85.7787 29.9239L85.7561 29.9013C85.4226 30.1443 85.1852 30.2969 85.0608 30.3648L80.946 32.507L80.1547 31.7778L81.9295 27.5273C81.9691 27.4256 82.116 27.1713 82.3647 26.7643L82.3365 26.7417C82.003 27.1543 81.6525 27.5613 81.2908 27.9513L78.8603 30.5796L77.9673 29.7543L82.2686 25.1025L83.71 26.4365L82.1104 30.1726C81.9804 30.4835 81.8334 30.7548 81.6752 30.9865L81.6978 31.0035C81.9973 30.8056 82.263 30.6474 82.5004 30.523L86.1009 28.6521L87.5026 29.9465L83.2013 34.5983L82.2234 33.6939L82.2178 33.6883Z" fill="#707070"/>
<path d="M86.1233 38.6335L83.885 35.6266L88.9664 31.8452L91.1142 34.7392L90.2268 35.4005L88.8816 33.5918L87.6833 34.4848L88.9325 36.1635L88.0507 36.8192L86.8016 35.1405L85.5694 36.0561L86.9994 37.9835L86.112 38.6449L86.1233 38.6335Z" fill="#707070"/>
<path d="M89.1532 39.4757L87.2088 40.527L86.5645 39.3401L92.1319 36.3218L93.1719 38.2379C93.9237 39.6227 93.7089 40.6344 92.5389 41.2731C91.968 41.584 91.3971 41.6236 90.8262 41.3918C90.2554 41.1601 89.8088 40.7249 89.481 40.0918L89.1475 39.4814L89.1532 39.4757ZM91.8606 38.0061L90.0632 38.9783L90.3402 39.4927C90.7189 40.1879 91.2106 40.3744 91.8154 40.0466C92.4089 39.7244 92.5163 39.2214 92.1432 38.5318L91.8606 38.0061Z" fill="#707070"/>
<path d="M91.2106 78.2843L92.0528 76.6847L87.4236 74.2486L88.051 73.0503L92.6802 75.4864L93.5167 73.8925L94.4945 74.4068L92.1828 78.7986L91.2049 78.2843H91.2106Z" fill="#707070"/>
<path d="M83.9981 79.4259L86.1855 76.3794L91.3291 80.076L89.2264 83.0038L88.3277 82.3595L89.6391 80.5281L88.4238 79.6577L87.2029 81.359L86.3099 80.7203L87.5308 79.019L86.2873 78.1259L84.8855 80.076L83.9868 79.4316L83.9981 79.4259Z" fill="#707070"/>
<path d="M80.4883 83.4844C80.6465 82.9983 80.98 82.484 81.4944 81.9527C82.1557 81.2631 82.8848 80.9183 83.6874 80.9127C84.4901 80.907 85.2305 81.2292 85.9144 81.8905C86.6323 82.5857 87.0053 83.377 87.0336 84.2701C87.0618 85.1632 86.7284 85.9658 86.0388 86.678C85.6092 87.1245 85.1909 87.441 84.7896 87.6275L83.8514 86.7232C84.3262 86.5875 84.7557 86.3275 85.1344 85.9375C85.564 85.491 85.7675 84.9992 85.7392 84.4566C85.711 83.914 85.4679 83.4223 85.0101 82.9814C84.5635 82.5518 84.0775 82.3314 83.5631 82.3201C83.0487 82.3088 82.5796 82.5236 82.1613 82.9531C81.7713 83.3601 81.5113 83.8236 81.387 84.3492L80.4939 83.4901L80.4883 83.4844Z" fill="#707070"/>
<path d="M75.3279 87.1019L76.4188 86.305L77.9618 88.4132L80.1379 86.8193L78.5949 84.711L79.6858 83.9141L83.4275 89.0237L82.3366 89.8206L80.8275 87.7576L78.6514 89.3515L80.1605 91.4146L79.0697 92.2115L75.3279 87.1019Z" fill="#707070"/>
<path d="M69.1895 90.1201L70.4386 89.5323L74.6043 92.1097C74.8191 92.2454 74.983 92.3584 75.0961 92.4488L75.113 92.4375C75 92.251 74.8474 91.9514 74.6496 91.5388L73.1234 88.2775L74.2822 87.7349L76.967 93.4719L75.633 94.0936L71.603 91.584C71.3373 91.4145 71.1678 91.3071 71.1056 91.2619L71.0886 91.2732C71.1791 91.3975 71.3147 91.6575 71.4956 92.0475L73.0274 95.3202L71.8687 95.8628L69.1838 90.1258L69.1895 90.1201Z" fill="#707070"/>
<path d="M69.1668 93.4096C69.4042 94.3705 69.3194 95.224 68.9068 95.9701C68.4942 96.7162 67.8272 97.2023 66.9003 97.4284C66.0242 97.6431 65.2442 97.5301 64.5602 97.0779C63.882 96.6257 63.4241 95.9418 63.198 95.0205C62.9607 94.0653 63.0454 93.2174 63.4581 92.4827C63.865 91.7479 64.5207 91.2674 65.425 91.047C66.3068 90.8266 67.0924 90.9396 67.7877 91.3805C68.4829 91.8213 68.9407 92.4996 69.1668 93.4096ZM67.8046 93.8222C67.6577 93.2231 67.392 92.7709 67.0077 92.46C66.6233 92.1492 66.1824 92.0587 65.6794 92.1831C65.165 92.3074 64.8089 92.5901 64.6168 93.0253C64.4189 93.4605 64.3963 93.9862 64.5489 94.5966C64.7072 95.2353 64.9729 95.7101 65.3402 96.0097C65.7076 96.3149 66.1485 96.3997 66.6516 96.2753C67.1659 96.151 67.522 95.857 67.7255 95.4049C67.929 94.9527 67.9516 94.4214 67.8046 93.8166V93.8222Z" fill="#707070"/>
<path d="M59.4392 94.0765L61.8471 93.8447L61.9375 94.7717L59.5296 95.0034L59.4392 94.0765Z" fill="#707070"/>
<path d="M56.6809 94.3819L56.7431 92.1719L58.094 92.2114L57.9131 98.5419L55.737 98.4798C54.16 98.4345 53.3913 97.745 53.4309 96.4111C53.4479 95.761 53.7022 95.2467 54.1883 94.8736C54.6744 94.5006 55.2735 94.3254 55.9914 94.3649L56.6866 94.3876L56.6809 94.3819ZM56.5905 97.4624L56.647 95.4163L56.0648 95.3993C55.2735 95.3767 54.8666 95.7102 54.844 96.3997C54.827 97.0724 55.2057 97.4228 55.9914 97.4454L56.5905 97.4624Z" fill="#707070"/>
<path d="M52.6171 95.1166C52.4192 96.0887 51.9784 96.8235 51.2831 97.3209C50.5936 97.8183 49.7796 97.9709 48.847 97.7844C47.9596 97.6035 47.304 97.1627 46.8857 96.4674C46.4618 95.7666 46.3487 94.9526 46.5353 94.0257C46.7331 93.0591 47.1683 92.33 47.8579 91.8439C48.5418 91.3578 49.3388 91.2052 50.2488 91.3861C51.1362 91.5669 51.8031 92.0022 52.2384 92.703C52.6736 93.3983 52.8036 94.2065 52.6171 95.1279V95.1166ZM51.2096 94.9074C51.334 94.3026 51.2831 93.7826 51.074 93.3361C50.8592 92.8952 50.4975 92.6239 49.9944 92.5165C49.4744 92.4091 49.0335 92.5165 48.6718 92.8217C48.3101 93.127 48.067 93.5961 47.937 94.2178C47.807 94.8622 47.8409 95.4048 48.0501 95.8344C48.2535 96.264 48.6096 96.5353 49.124 96.637C49.644 96.7444 50.0905 96.637 50.4636 96.3092C50.8423 95.987 51.091 95.5179 51.2153 94.9018L51.2096 94.9074Z" fill="#707070"/>
<path d="M42.9066 89.21L46.3883 90.5156L44.1614 96.4448L42.8953 95.97L44.7379 91.0752L42.5222 90.2443L42.9122 89.21H42.9066Z" fill="#707070"/>
<path d="M35.7679 92.6237L39.487 89.9728L40.5327 87.9663L41.731 88.588L40.6966 90.572L40.5836 95.1333L39.2157 94.4212L39.3909 91.7816C39.3909 91.7307 39.4249 91.5555 39.487 91.2672H39.4701C39.3514 91.4142 39.2383 91.5385 39.1253 91.629L37.034 93.2794L35.7622 92.6181L35.7679 92.6237Z" fill="#707070"/>
<path d="M33.7442 83.2018L31.342 86.2031C31.1216 86.4801 30.8277 86.8192 30.4659 87.2149L30.4886 87.2375C30.8051 86.9718 31.0255 86.8022 31.1499 86.7231L35.1008 84.2926L35.9373 84.9653L34.4677 89.3288C34.4338 89.4362 34.3038 89.6962 34.089 90.1201L34.1173 90.1427C34.4225 89.7075 34.739 89.2779 35.0782 88.8597L37.3165 86.0618L38.266 86.8248L34.3038 91.7706L32.7721 90.544L34.1003 86.7005C34.2077 86.384 34.3321 86.1014 34.4734 85.8583L34.4508 85.8414C34.1682 86.0561 33.9138 86.237 33.6821 86.3783L30.2229 88.5036L28.7307 87.3109L32.6929 82.3652L33.7329 83.1961L33.7442 83.2018Z" fill="#707070"/>
<path d="M29.505 78.5557L31.9524 81.3987L27.1537 85.5305L24.8024 82.8005L25.6389 82.0827L27.1085 83.7896L28.2389 82.8175L26.8711 81.2292L27.7076 80.5113L29.0755 82.0996L30.2398 81.0992L28.6741 79.2791L29.5107 78.5613L29.505 78.5557Z" fill="#707070"/>
<path d="M26.2097 73.4683L27.0406 74.7797L26.1815 76.4979C26.0006 76.854 25.9045 77.114 25.8932 77.2723C25.8819 77.4306 25.9158 77.5775 25.9893 77.7019L26.2097 78.0466L28.2841 76.7353L29.0076 77.8771L23.6549 81.2628L22.4679 79.3862C21.6653 78.1145 21.7445 77.1705 22.711 76.5545C23.0727 76.3227 23.4571 76.2323 23.8527 76.2831C24.2484 76.334 24.6158 76.5092 24.9606 76.8145L24.9719 76.8032C24.8984 76.5036 25.0001 76.0571 25.2714 75.4692L26.221 73.457L26.2097 73.4683ZM23.7962 79.5784L25.3393 78.6062L24.9832 78.0466C24.8136 77.781 24.5988 77.6114 24.3445 77.5492C24.0845 77.4871 23.8414 77.5266 23.6097 77.6736C23.1236 77.9788 23.0671 78.4197 23.4345 79.0019L23.8019 79.5841L23.7962 79.5784Z" fill="#707070"/>
</svg>

<svg width="115" height="115" fill="none" xmlns="http://www.w3.org/2000/svg"><path d="M.176 57.207C-2.215 32.405 19.947.142 56.94 0c31.523-.124 57.246 25.86 57.24 57.314 0 31.523-25.7 56.884-57.342 57.088-34.416.22-58.868-30.178-56.663-57.195z" fill="#707070"/><path d="M102.583 57.184c.057 25.498-20.252 45.97-45.642 46.009-25.44.04-45.919-20.364-45.952-45.777-.034-25.486 20.274-45.913 45.704-45.97 25.474-.056 45.834 20.235 45.89 45.738z" fill="#DADADA"/><path d="M29.923 51.503c4.398-21.602 30.822-27.916 43.534-15.764-16.08 16.386-26.108 23.265-42.002 16.804-.695-.073-1.215-.412-1.532-1.04z" fill="#707070"/><path d="M29.923 51.504c.51.345 1.459.43 1.532 1.04.893 7.291-.768 8.54-1.317 12.796l.108-.124c-2.222-.107-4.54.158-6.636-.407-3.883-1.04-9.88-2.097-10.027-5.584-.192-4.38 5.166-7.546 8.744-10.406 2.803-2.244 4.844 2.221 7.602 2.685h-.006zm31.523 2.843c-6.732 5.952-13.724 11.632-20.1 17.946-4.73 4.685-6.985 2.583-9.071-2.086-.73-1.633-1.357-3.323-2.024-4.985l-.107.124c12.328 1.735 21.62-4.126 30.087-12.034.622.09 1.029.436 1.215 1.035z" fill="#707070"/><path d="M61.446 54.347c-.407-.345-.814-.69-1.215-1.034 3.854-3.414 7.681-6.862 11.57-10.231 5.844-5.07 6.048-5.008 9.863 1.978.639 1.165 1.38 2.273 2.091 3.392.012-.017.119-.142.125-.153-7.54 1.74-15.6 1.605-22.428 6.048h-.006zm22.23 8.23c-4.476 21.585-30.923 27.797-43.595 15.6C56.223 61.853 66.273 55.014 82.144 61.53c.696.079 1.216.412 1.532 1.046z" fill="#707070"/><path d="M83.676 62.576c-.508-.35-1.458-.435-1.532-1.045-.864-7.292.803-8.54 1.368-12.791l-.107.124c2.221.119 4.539-.141 6.636.43 3.877 1.057 9.868 2.136 10.01 5.624.175 4.38-5.195 7.523-8.784 10.377-2.815 2.238-4.838-2.238-7.59-2.713v-.006zM25.362 33.377l-1.006 1.504 4.346 2.91-.751 1.126-4.347-2.911-1.006 1.498-.916-.617 2.764-4.126.916.616zm7.298-.379l-2.5 2.798-4.724-4.216 2.396-2.69.825.734-1.497 1.684 1.113.995 1.396-1.56.82.735-1.396 1.56 1.141 1.023 1.6-1.792.825.735v-.006zm4.492-3.843l-1.232 1.028-2.221-.887a1.863 1.863 0 01-.362-.237l-.011.01c.045.091.102.233.158.42l.464 2.334-1.238 1.034-.47-3.736-3.453-1.238 1.26-1.051 1.967.881a3.3 3.3 0 01.487.277l.01-.01a5.375 5.375 0 01-.186-.555l-.43-2.142 1.16-.967.542 3.64 3.555 1.193v.006zm5.127-2.968l-1.17.673-1.3-2.267-2.346 1.34 1.3 2.267-1.17.672-3.142-5.5 1.17-.672 1.271 2.216 2.34-1.34-1.271-2.221 1.17-.673 3.142 5.5.006.005zm-.254-3.295c-.322-.938-.305-1.797.045-2.572.35-.774.972-1.317 1.87-1.622.86-.294 1.646-.243 2.364.153.717.39 1.226 1.034 1.531 1.933.317.933.306 1.786-.04 2.549-.344.769-.955 1.3-1.836 1.6-.86.294-1.656.248-2.38-.136-.723-.384-1.243-1.018-1.543-1.905h-.011zm1.317-.526c.198.583.503 1.012.91 1.29.407.276.853.327 1.345.163.503-.17.83-.48.99-.932.157-.453.135-.973-.069-1.572-.214-.622-.514-1.074-.91-1.345-.395-.271-.836-.322-1.328-.153-.503.17-.83.492-.995.961-.164.47-.141 1 .063 1.588h-.006zm8.314-.966l-2.38.435-.17-.915 2.38-.436.17.916zm6.868 1.504l-1.351.05-.187-5.143-2.696.096.187 5.143-1.351.051-.226-6.33 5.398-.192.226 6.33v-.005zm1.277-3.041c.153-.984.56-1.735 1.227-2.261.666-.526 1.47-.718 2.413-.577.893.136 1.571.549 2.024 1.227.452.678.61 1.486.463 2.42-.153.977-.554 1.723-1.215 2.243-.661.52-1.453.712-2.368.57-.9-.135-1.583-.542-2.052-1.22-.47-.678-.633-1.475-.492-2.402zm1.413.141c-.096.61-.023 1.13.21 1.56.23.43.604.69 1.118.763.52.08.956-.045 1.306-.367.35-.328.57-.803.667-1.425.102-.65.04-1.187-.186-1.61-.227-.424-.594-.673-1.108-.752-.526-.08-.967.05-1.323.39-.362.339-.588.82-.684 1.436v.005zm9.79 5.782l-1.272-.446 1.73-4.906-1.244-.441c-1.097 2.114-1.877 3.397-2.334 3.855-.464.457-.99.582-1.583.373a2.305 2.305 0 01-.667-.368l.362-1.023c.141.119.271.198.39.238a.49.49 0 00.271.01c.096-.022.215-.1.35-.23.142-.13.357-.42.65-.871.294-.452.605-.995.945-1.628l.955-1.792 3.55 1.255-2.109 5.974h.006zm5.957 3.324l-1.102-.645 1.82-3.108c.187-.322.373-.605.549-.848l-.023-.017c-.085.062-.26.158-.52.294l-4.386 2.182-1.187-.696 3.199-5.465 1.102.644-1.825 3.114c-.22.38-.38.622-.475.735h.011l4.776-2.396 1.266.74-3.199 5.466h-.006zm5.257 4.578l2.611-2.82c.243-.26.554-.577.95-.944l-.023-.023c-.333.243-.57.396-.695.464l-4.115 2.142-.791-.73 1.775-4.25c.04-.101.186-.356.435-.763l-.028-.022c-.334.412-.684.82-1.046 1.21l-2.43 2.628-.894-.826 4.302-4.652 1.441 1.334-1.6 3.737c-.13.31-.277.582-.435.814l.023.017c.3-.198.565-.357.802-.481l3.6-1.87 1.403 1.294-4.302 4.651-.978-.904-.005-.006zm3.905 4.945l-2.238-3.006 5.081-3.782 2.148 2.894-.887.662-1.345-1.81-1.199.894 1.25 1.678-.882.656-1.25-1.678-1.232.915L87 37.984l-.887.66.011-.01zm3.03.843l-1.944 1.051-.645-1.187 5.568-3.018 1.04 1.916c.752 1.385.537 2.396-.633 3.035-.571.311-1.142.35-1.713.119-.57-.232-1.017-.667-1.345-1.3l-.334-.61.006-.006zm2.708-1.47l-1.798.972.277.515c.379.695.87.881 1.475.554.594-.323.701-.826.328-1.515l-.282-.526zm-.651 40.278l.843-1.6-4.63-2.435.628-1.199 4.63 2.436.836-1.594.978.515-2.312 4.392-.978-.515h.006zm-7.212 1.142l2.188-3.047 5.143 3.697-2.103 2.928-.898-.645 1.311-1.83-1.215-.871-1.221 1.701-.893-.639 1.22-1.701-1.243-.893-1.402 1.95-.898-.644.011-.006zm-3.51 4.058c.159-.486.492-1 1.006-1.531.662-.69 1.39-1.035 2.193-1.04.803-.006 1.544.316 2.227.978.718.695 1.091 1.486 1.12 2.38.028.892-.306 1.695-.995 2.407-.43.447-.848.763-1.25.95l-.938-.905a2.873 2.873 0 001.283-.785c.43-.447.633-.939.605-1.481-.028-.543-.271-1.035-.729-1.476-.447-.43-.933-.65-1.447-.66-.514-.012-.983.203-1.402.632-.39.407-.65.87-.774 1.396l-.893-.859-.006-.006zm-5.16 3.618l1.09-.797 1.544 2.108 2.176-1.594-1.543-2.108 1.09-.797 3.742 5.11-1.09.797-1.51-2.063-2.176 1.594 1.51 2.063-1.091.796-3.742-5.11zM69.19 90.12l1.249-.588 4.165 2.578a5.4 5.4 0 01.492.339l.017-.011a11.688 11.688 0 01-.463-.9l-1.527-3.26 1.16-.543 2.684 5.737-1.334.622-4.03-2.51c-.266-.17-.435-.277-.497-.322l-.017.011c.09.124.226.385.407.775l1.531 3.272-1.158.543-2.685-5.737.005-.006zm-.023 3.29c.237.96.152 1.814-.26 2.56-.413.746-1.08 1.232-2.007 1.458-.876.215-1.656.102-2.34-.35-.678-.452-1.136-1.136-1.362-2.058-.237-.955-.153-1.803.26-2.537.407-.735 1.063-1.216 1.967-1.436.882-.22 1.667-.107 2.363.334.695.44 1.153 1.119 1.379 2.029zm-1.362.412c-.147-.599-.413-1.051-.797-1.362-.385-.31-.826-.401-1.329-.277-.514.124-.87.407-1.062.842-.198.435-.22.961-.068 1.572.158.638.424 1.113.791 1.413.368.305.808.39 1.312.265.514-.124.87-.418 1.073-.87.204-.452.227-.984.08-1.588v.005zm-8.365.254l2.407-.231.09.927-2.407.231-.09-.927zm-2.76.306l.063-2.21 1.351.04-.18 6.33-2.177-.062c-1.577-.046-2.346-.735-2.306-2.069.017-.65.271-1.164.757-1.537s1.085-.549 1.803-.51l.696.024-.006-.006zm-.09 3.08l.057-2.046-.582-.017c-.791-.022-1.198.311-1.221 1-.017.673.362 1.024 1.147 1.046l.6.017zm-3.973-2.345c-.198.972-.639 1.706-1.334 2.204-.69.497-1.503.65-2.436.463-.887-.18-1.543-.621-1.961-1.317-.424-.7-.537-1.514-.35-2.441.197-.967.632-1.696 1.322-2.182.684-.486 1.48-.639 2.39-.458.888.18 1.555.616 1.99 1.317.436.695.566 1.504.38 2.425v-.011zm-1.407-.21c.124-.604.073-1.124-.136-1.57-.215-.442-.576-.713-1.08-.82-.52-.108-.96 0-1.322.305-.362.305-.605.774-.735 1.396-.13.644-.096 1.187.113 1.616.204.43.56.701 1.074.803.52.107.966 0 1.34-.328.378-.322.627-.791.751-1.407l-.005.005zm-8.303-5.697l3.481 1.306-2.227 5.929-1.266-.475 1.843-4.895-2.216-.83.39-1.035h-.005zm-7.139 3.414l3.719-2.651 1.046-2.007 1.198.622-1.034 1.984-.113 4.561-1.368-.712.175-2.64c0-.05.034-.226.096-.514h-.017a2.385 2.385 0 01-.345.362l-2.091 1.65-1.272-.66.006.005zm-2.024-9.422l-2.402 3.001c-.22.277-.514.616-.876 1.012l.023.022c.316-.265.537-.435.66-.514l3.952-2.43.836.672-1.47 4.364c-.033.107-.163.367-.378.791l.028.023c.306-.436.622-.865.961-1.283l2.238-2.798.95.763-3.962 4.946-1.532-1.227 1.328-3.843c.108-.317.232-.6.373-.843l-.022-.017a9.408 9.408 0 01-.769.537l-3.46 2.126-1.491-1.193 3.962-4.946 1.04.831.011.006zm-4.239-4.646l2.447 2.843-4.798 4.132-2.352-2.73.837-.718 1.47 1.707 1.13-.973-1.368-1.588.837-.718 1.368 1.589 1.164-1-1.566-1.82.837-.719-.006-.005zm-3.295-5.088l.83 1.312-.858 1.718c-.181.356-.277.616-.289.774a.733.733 0 00.096.43l.22.345 2.075-1.312.724 1.142-5.353 3.386-1.187-1.877c-.803-1.271-.724-2.215.243-2.831a1.676 1.676 0 011.142-.272c.395.051.763.226 1.108.531l.01-.01c-.073-.3.03-.747.3-1.335l.95-2.012-.011.011zm-2.414 6.11l1.543-.972-.356-.56c-.17-.265-.384-.435-.639-.497a.917.917 0 00-.734.125c-.486.305-.543.746-.175 1.328l.367.582-.006-.006z" fill="#707070"/></svg>
